X: 5773
T: Cairngorum Mountain
R: jig
M: 6/8
K: Aminor
G>EG C>EG|GEG G2 c/B/|A>BA AGA|c>de e2 e|
deg ac'a|ged cde|eag e2 d|ecA A2:|
g>ag geg|a>ba a2 g|geg a>gf|e2 d c2 a/b/|
c'>ag age|ged edc|deg aed|cAA A2:|

